epam-assets/icon-sources/18/action-account.svg

<svg width="18" height="18" viewBox="0 0 18 18" fill="none" xmlns="http://www.w3.org/2000/svg">
<g id="18/action-account">
<path id="icon" fill-rule="evenodd" clip-rule="evenodd" d="M16.5 9C16.5 13.1421 13.1421 16.5 9 16.5C4.85786 16.5 1.5 13.1421 1.5 9C1.5 4.85786 4.85786 1.5 9 1.5C13.1421 1.5 16.5 4.85786 16.5 9ZM9 15C10.8709 15 12.5417 14.1437 13.6421 12.8017C13.6309 12.8073 13.621 12.815 13.6124 12.825C12.975 12.3375 12.2624 11.953 11.475 11.6715C10.6874 11.3905 9.86244 11.25 8.99993 11.25C8.13741 11.25 7.31243 11.3905 6.52489 11.6715C5.73744 11.953 5.02489 12.3375 4.38741 12.825C4.37723 12.8131 4.36652 12.8044 4.35535 12.7986C5.45567 14.1424 7.12769 15 9 15ZM7.1339 8.991C7.64046 9.49699 8.26247 9.75 8.99993 9.75C9.73738 9.75 10.3594 9.49699 10.866 8.991C11.372 8.48449 11.6249 7.8625 11.6249 7.125C11.6249 6.3875 11.372 5.76551 10.866 5.259C10.3594 4.75301 9.73738 4.5 8.99993 4.5C8.26247 4.5 7.64046 4.75301 7.1339 5.259C6.62789 5.76551 6.37493 6.3875 6.37493 7.125C6.37493 7.8625 6.62789 8.48449 7.1339 8.991Z" fill="#6C6F80"/>
</g>
</svg>

<svg xmlns="http://www.w3.org/2000/svg" width="18" height="18" fill="none" viewBox="0 0 18 18">
  <path fill="#6C6F80" fill-rule="evenodd" d="M16.5 9a7.5 7.5 0 1 1-15 0 7.5 7.5 0 0 1 15 0ZM9 15c1.87 0 3.542-.856 4.642-2.198a.095.095 0 0 0-.03.023 7.833 7.833 0 0 0-2.137-1.153A7.31 7.31 0 0 0 9 11.25a7.31 7.31 0 0 0-2.475.421c-.788.282-1.5.667-2.138 1.154a.108.108 0 0 0-.032-.026A5.988 5.988 0 0 0 9 15ZM7.134 8.991c.506.506 1.128.759 1.866.759.737 0 1.36-.253 1.866-.759.506-.507.759-1.128.759-1.866 0-.737-.253-1.36-.759-1.866C10.359 4.753 9.737 4.5 9 4.5c-.738 0-1.36.253-1.866.759-.506.507-.76 1.128-.76 1.866 0 .737.254 1.36.76 1.866Z" clip-rule="evenodd"/>
</svg>
